X:1
T: Miss Barbara Stewart's Reel
C:William Marshall
R:Reel
Q: 232
K:D
M:4/4
L:1/8
|:g|f2 e2 d2 e2|dc Bc d4|F2 D2 D2 F2|A4 A2 a2|^g2 f2 e2 g2|f2 ^d2 e4|^G2 E2 E2 G2|B4 B2 g2|
f2 e2 d2 e2|dc Bc d4|F2 D2 D2 F2|A4 A2 F2|G2 B2 A2 c2|B2 e2 ^d2 f2|e2 E2 E2 ^G2|B4 B2 d2|
A2 F2 D2 F2|d2 F2 D2 F2|A2 F2 D2 F2|A4 A2 d2|B2 ^G2 E2 G2|e2 G2 E2 G2|B2 ^G2 E2 G2|B4 B2 d2|
A2 F2 D2 F2|d2 F2 D2 F2|A2 F2 D2 F2|A4 A2 ^g2|a2 f2 g2 e2|f2 ^d2 e4|^G2 E2 E2 G2|B4 B3||
